PortableApps/LibreOfficePortable/App/libreoffice/help/media/icon-themes/cmd/32/currencyfield.svg

<svg viewBox="0 0 32 32" xmlns="http://www.w3.org/2000/svg"><path d="m3 9v16h26v-16z" fill="#fff"/><path d="m2 8v18h28v-18zm4 1h20a3 3 0 0 0 3 3v10a3 3 0 0 0 -3 3h-20a3 3 0 0 0 -3-3v-10a3 3 0 0 0 3-3zm10 3a4 4 0 0 0 -4 4 4 4 0 0 0 4 4 4 4 0 0 0 4-4 4 4 0 0 0 -4-4zm0 1a3 3 0 0 1 3 3 3 3 0 0 1 -3 3 3 3 0 0 1 -3-3 3 3 0 0 1 3-3z" fill="#4d82b8"/><path d="m21 18v9c.370533.826893 1.052371 1.409694 3 1 1.595993.30523 2.668676.04977 3-1v-9zm-7 2v7c.370533.826893 1.052371 1.409694 3 1 1.595993.30523 2.668676.04977 3-1v-7zm-9 2v5l1 1h2 2l1-1v-5z" fill="#fff"/><path d="m24 17a4 3 0 0 0 -4 3v.019531a4 3 0 0 0 -3-1.019531 4 3 0 0 0 -4 3v4a4 3 0 0 0 4 3 4 3 0 0 0 3.5-1.552734 4 3 0 0 0 3.5 1.552734 4 3 0 0 0 4-3v-6a4 3 0 0 0 -4-3zm0 1a3 2 0 0 1 3 2 3 2 0 0 1 -3 2 3 2 0 0 1 -3-2 3 2 0 0 1 3-2zm-7 2a3 2 0 0 1 3 2 3 2 0 0 1 -3 2 3 2 0 0 1 -3-2 3 2 0 0 1 3-2zm-9 1a4 3 0 0 0 -4 3v2a4 3 0 0 0 4 3 4 3 0 0 0 4-3v-2a4 3 0 0 0 -4-3zm19 1a3 2 0 0 1 -3 2 3 2 0 0 1 -3-2 4 3 0 0 0 3 1 4 3 0 0 0 3-1zm-19 0a3 2 0 0 1 3 2 3 2 0 0 1 -3 2 3 2 0 0 1 -3-2 3 2 0 0 1 3-2zm12 2a3 2 0 0 1 -3 2 3 2 0 0 1 -3-2 4 3 0 0 0 3 1 4 3 0 0 0 3-1zm7 0a3 2 0 0 1 -3 2 3 2 0 0 1 -3-2 4 3 0 0 0 3 1 4 3 0 0 0 3-1zm-16 2a3 2 0 0 1 -3 2 3 2 0 0 1 -3-2 4 3 0 0 0 3 1 4 3 0 0 0 3-1zm9 0a3 2 0 0 1 -3 2 3 2 0 0 1 -3-2 4 3 0 0 0 3 1 4 3 0 0 0 3-1zm7 0a3 2 0 0 1 -3 2 3 2 0 0 1 -3-2 4 3 0 0 0 3 1 4 3 0 0 0 3-1z" fill="#eac282"/></svg>

<svg viewBox="0 0 32 32" xmlns="http://www.w3.org/2000/svg">
  <path
     style="fill:#ffffff"
     d="M 3 9 L 3 25 L 29 25 L 29 9 L 3 9 z "
     />
  <path
     style="fill:#4d82b8"
     d="M 2 8 L 2 26 L 30 26 L 30 8 L 2 8 z M 6 9 L 26 9 A 3 3 0 0 0 29 12 L 29 22 A 3 3 0 0 0 26 25 L 6 25 A 3 3 0 0 0 3 22 L 3 12 A 3 3 0 0 0 6 9 z M 16 12 A 4 4 0 0 0 12 16 A 4 4 0 0 0 16 20 A 4 4 0 0 0 20 16 A 4 4 0 0 0 16 12 z M 16 13 A 3 3 0 0 1 19 16 A 3 3 0 0 1 16 19 A 3 3 0 0 1 13 16 A 3 3 0 0 1 16 13 z "
     />
  <path
     style="fill:#ffffff"
     d="M 21 18 L 21 27 C 21.370533 27.826893 22.052371 28.409694 24 28 C 25.595993 28.30523 26.668676 28.04977 27 27 L 27 18 L 21 18 z M 14 20 L 14 27 C 14.370533 27.826893 15.052371 28.409694 17 28 C 18.595993 28.30523 19.668676 28.04977 20 27 L 20 20 L 14 20 z M 5 22 L 5 27 L 6 28 L 8 28 L 10 28 L 11 27 L 11 22 L 5 22 z "
     />
  <path
     style="fill:#eac282"
     d="M 24 17 A 4 3 0 0 0 20 20 L 20 20.019531 A 4 3 0 0 0 17 19 A 4 3 0 0 0 13 22 L 13 26 A 4 3 0 0 0 17 29 A 4 3 0 0 0 20.5 27.447266 A 4 3 0 0 0 24 29 A 4 3 0 0 0 28 26 L 28 20 A 4 3 0 0 0 24 17 z M 24 18 A 3 2 0 0 1 27 20 A 3 2 0 0 1 24 22 A 3 2 0 0 1 21 20 A 3 2 0 0 1 24 18 z M 17 20 A 3 2 0 0 1 20 22 A 3 2 0 0 1 17 24 A 3 2 0 0 1 14 22 A 3 2 0 0 1 17 20 z M 8 21 A 4 3 0 0 0 4 24 L 4 26 A 4 3 0 0 0 8 29 A 4 3 0 0 0 12 26 L 12 24 A 4 3 0 0 0 8 21 z M 27 22 L 27 22 A 3 2 0 0 1 24 24 A 3 2 0 0 1 21 22 L 21 22 A 4 3 0 0 0 24 23 A 4 3 0 0 0 27 22 z M 8 22 A 3 2 0 0 1 11 24 A 3 2 0 0 1 8 26 A 3 2 0 0 1 5 24 A 3 2 0 0 1 8 22 z M 20 24 L 20 24 A 3 2 0 0 1 17 26 A 3 2 0 0 1 14 24 L 14 24 A 4 3 0 0 0 17 25 A 4 3 0 0 0 20 24 z M 27 24 L 27 24 A 3 2 0 0 1 24 26 A 3 2 0 0 1 21 24 L 21 24 A 4 3 0 0 0 24 25 A 4 3 0 0 0 27 24 z M 11 26 L 11 26 A 3 2 0 0 1 8 28 A 3 2 0 0 1 5 26 L 5 26 A 4 3 0 0 0 8 27 A 4 3 0 0 0 11 26 z M 20 26 L 20 26 A 3 2 0 0 1 17 28 A 3 2 0 0 1 14 26 L 14 26 A 4 3 0 0 0 17 27 A 4 3 0 0 0 20 26 z M 27 26 L 27 26 A 3 2 0 0 1 24 28 A 3 2 0 0 1 21 26 L 21 26 A 4 3 0 0 0 24 27 A 4 3 0 0 0 27 26 z "
     />
</svg>
